X: 1
T: Conspiracy, The
M: 4/4
L: 1/8
R: reel
K: Gmaj
fgag fdcA|AGGF DEFG|fgag fdcA|(3Bcd cA AGGA|
fgag fdcA|AGGF DEED|DEFG AAge|fdAc B~G3:|
d~g3 a~g3|agfd B~G3|d~g3 a~g3|abag fdde|
d~g3 a~g3|~a3g ~f3g|aage (3fed eg|fdcA A~G3:|
